HTML/img/Rhythms/rhythm2.svg

<svg width="612" height="792" viewBox="0 0 140 50" xmlns="http://www.w3.org/2000/svg"><path class="StaffLines" fill="none" stroke="#000" stroke-width=".4" stroke-linejoin="bevel" d="M4.945 21.26h130.11"/><path class="BarLine" d="M125.821 19.56a1.087 1.087 0 01-.332-.8c0-.313.11-.58.332-.801.221-.221.488-.332.8-.332.313 0 .58.111.801.332.222.221.332.488.332.801 0 .312-.11.579-.332.8a1.088 1.088 0 01-.801.332c-.312 0-.579-.11-.8-.332M125.821 24.561a1.091 1.091 0 01-.332-.801c0-.313.11-.579.332-.801.221-.221.488-.332.8-.332.313 0 .58.111.801.332.222.222.332.488.332.801 0 .312-.11.579-.332.801a1.092 1.092 0 01-.801.332c-.312 0-.579-.111-.8-.332"/><path class="BarLine" fill="none" stroke="#000" stroke-width=".8" stroke-linejoin="bevel" d="M130.155 11.258V31.26"/><path class="BarLine" fill="none" stroke="#000" stroke-width="2.5" stroke-linejoin="bevel" d="M133.805 11.258V31.26"/><path class="Stem" fill="none" stroke="#000" stroke-width=".65" stroke-linecap="round" stroke-linejoin="bevel" d="M106.471 22.199v12.186M87.128 22.199v12.186M75.039 22.199V38.76M55.696 22.199v12.186M43.607 22.199V38.76"/><path class="Note" d="M110.54 18.506c.625 0 1.153.163 1.582.487.404.353.606.795.606 1.329 0 .899-.463 1.738-1.387 2.52-.937.781-1.94 1.172-3.008 1.172-.625 0-1.152-.163-1.582-.489a1.688 1.688 0 01-.605-1.328c0-.898.468-1.738 1.406-2.519.911-.782 1.908-1.172 2.988-1.172M91.197 18.506c.625 0 1.153.163 1.582.487.404.353.606.795.606 1.329 0 .899-.462 1.738-1.387 2.52-.937.781-1.94 1.172-3.008 1.172-.625 0-1.152-.163-1.582-.489a1.688 1.688 0 01-.605-1.328c0-.898.469-1.738 1.406-2.519.911-.782 1.908-1.172 2.988-1.172M79.108 18.506c.625 0 1.152.163 1.582.487.404.353.606.795.606 1.329 0 .899-.463 1.738-1.387 2.52-.938.781-1.94 1.172-3.008 1.172-.625 0-1.152-.163-1.582-.489a1.688 1.688 0 01-.605-1.328c0-.898.468-1.738 1.406-2.519.911-.782 1.907-1.172 2.988-1.172M59.765 18.506c.625 0 1.153.163 1.582.487.404.353.606.795.606 1.329 0 .899-.462 1.738-1.387 2.52-.937.781-1.94 1.172-3.008 1.172-.625 0-1.152-.163-1.582-.489a1.688 1.688 0 01-.605-1.328c0-.898.469-1.738 1.406-2.519.912-.782 1.908-1.172 2.988-1.172M47.676 18.506c.625 0 1.152.163 1.582.487.404.353.606.795.606 1.329 0 .899-.463 1.738-1.387 2.52-.938.781-1.94 1.172-3.008 1.172-.625 0-1.152-.163-1.582-.489a1.686 1.686 0 01-.606-1.328c0-.898.469-1.738 1.407-2.519.911-.782 1.907-1.172 2.988-1.172"/><path class="Clef" d="M17.95 26.26h-1.836c-.144 0-.215-.065-.215-.196v-9.61c0-.129.071-.194.215-.194h1.836c.13 0 .195.065.195.194v9.61c0 .131-.065.196-.195.196m-4.414 0H11.68c-.13 0-.195-.065-.195-.196v-9.61c0-.129.065-.194.195-.194h1.856c.143 0 .214.065.214.194v9.61c0 .131-.071.196-.214.196"/><path class="TimeSig" d="M31.023 11.513c.39 0 .722-.046.996-.136.273-.092.449-.137.527-.137.091 0 .163.026.215.078a.293.293 0 01.078.136.303.303 0 01-.039.118l-5.684 6.601h3.34v-2.617c0-.169.046-.313.137-.429.156-.132.286-.209.391-.235.169-.078.377-.26.625-.547.208-.234.455-.644.742-1.23.039-.079.097-.117.176-.117.156 0 .247.091.273.273v4.902h1.426c.182 0 .286.098.312.292 0 .196-.104.293-.312.293H32.8v.158c0 .52.13.963.391 1.327.299.364.651.548 1.054.548.157 0 .235.077.235.234 0 .156-.078.233-.235.233-.273 0-.716-.038-1.328-.116-.56-.091-.996-.137-1.308-.137-.326 0-.762.046-1.309.137-.586.078-1.022.116-1.309.116-.156 0-.234-.077-.234-.233 0-.157.078-.234.234-.234.404 0 .756-.184 1.055-.548.274-.364.41-.807.41-1.327v-.158h-3.34c-.221 0-.377-.051-.468-.155a.369.369 0 01-.157-.312c0-.039.098-.176.293-.411.222-.26.456-.579.703-.957.287-.443.56-.898.821-1.367a7.832 7.832 0 00.683-1.836 7.96 7.96 0 00.293-2.148c0-.208.091-.314.274-.314.039 0 .123.021.254.06.039.013.12.033.244.059.124.026.224.052.303.077.234.039.455.059.664.059"/><path class="TimeSig" d="M31.023 21.514c.39 0 .722-.047.996-.137.273-.091.449-.137.527-.137.091 0 .163.027.215.079a.285.285 0 01.078.135.303.303 0 01-.039.118l-5.684 6.602h3.34v-2.617c0-.169.046-.314.137-.43.156-.13.286-.208.391-.234.169-.079.377-.261.625-.547.208-.234.455-.645.742-1.231.039-.079.097-.117.176-.117.156 0 .247.091.273.273v4.903h1.426c.182 0 .286.097.312.293 0 .194-.104.293-.312.293H32.8v.156c0 .521.13.964.391 1.327.299.366.651.548 1.054.548.157 0 .235.077.235.235 0 .156-.078.234-.235.234-.273 0-.716-.039-1.328-.117-.56-.092-.996-.137-1.308-.137-.326 0-.762.045-1.309.137-.586.078-1.022.117-1.309.117-.156 0-.234-.078-.234-.234 0-.158.078-.235.234-.235.404 0 .756-.182 1.055-.548.274-.363.41-.806.41-1.327v-.156h-3.34c-.221 0-.377-.052-.468-.156a.37.37 0 01-.157-.313c0-.039.098-.176.293-.41a9.65 9.65 0 00.703-.957c.287-.444.56-.898.821-1.367a7.815 7.815 0 00.683-1.836c.196-.703.293-1.42.293-2.149 0-.208.091-.312.274-.312.039 0 .123.02.254.059.039.013.12.032.244.058.124.026.224.052.303.077.234.039.455.06.664.06"/><path class="Hook" d="M79.264 24.288c.3 0 .619.488.957 1.465.326.964.489 1.88.489 2.754 0 .742-.183 1.478-.547 2.207a8.495 8.495 0 01-1.348 2.031l-1.602 1.797a10.214 10.214 0 00-1.327 1.992 4.925 4.925 0 00-.547 2.226h-.625v-5h.625a43 43 0 001.562-1.054c.312-.234.781-.625 1.406-1.172.508-.47.892-.95 1.153-1.445.273-.521.41-1.048.41-1.582 0-1.237-.358-2.468-1.074-3.693v-.077a.4.4 0 01.117-.293.485.485 0 01.351-.156M47.832 24.288c.3 0 .619.488.957 1.465.326.964.489 1.88.489 2.754 0 .742-.183 1.478-.547 2.207a8.495 8.495 0 01-1.348 2.031l-1.602 1.797a10.262 10.262 0 00-1.328 1.992 4.938 4.938 0 00-.547 2.226h-.625v-5h.625c.352-.221.873-.572 1.563-1.054.312-.234.781-.625 1.406-1.172.508-.47.892-.95 1.153-1.445.273-.521.41-1.048.41-1.582 0-1.237-.358-2.468-1.074-3.693v-.077a.4.4 0 01.117-.293.485.485 0 01.351-.156"/></svg>

<?xml version="1.0" encoding="utf-8"?>
<svg width="612px" height="792px" viewBox="0 0 140 50" xmlns="http://www.w3.org/2000/svg">
  <title>Rythm rythms</title>
  <desc>Generated by MuseScore 2.0.3</desc>
  <polyline class="StaffLines" fill="none" stroke="#000000" stroke-width="0.40" stroke-linejoin="bevel" points="4.945 21.26 135.055 21.26"/>
  <path class="BarLine" d="M 125.821 19.56 C 125.599 19.339 125.489 19.072 125.489 18.76 C 125.489 18.447 125.599 18.18 125.821 17.959 C 126.042 17.738 126.309 17.627 126.621 17.627 C 126.934 17.627 127.201 17.738 127.422 17.959 C 127.644 18.18 127.754 18.447 127.754 18.76 C 127.754 19.072 127.644 19.339 127.422 19.56 C 127.201 19.782 126.934 19.892 126.621 19.892 C 126.309 19.892 126.042 19.782 125.821 19.56"/>
  <path class="BarLine" d="M 125.821 24.561 C 125.599 24.339 125.489 24.072 125.489 23.76 C 125.489 23.447 125.599 23.181 125.821 22.959 C 126.042 22.738 126.309 22.627 126.621 22.627 C 126.934 22.627 127.201 22.738 127.422 22.959 C 127.644 23.181 127.754 23.447 127.754 23.76 C 127.754 24.072 127.644 24.339 127.422 24.561 C 127.201 24.782 126.934 24.893 126.621 24.893 C 126.309 24.893 126.042 24.782 125.821 24.561"/>
  <polyline class="BarLine" fill="none" stroke="#000000" stroke-width="0.80" stroke-linejoin="bevel" points="130.155 11.258 130.155 31.26"/>
  <polyline class="BarLine" fill="none" stroke="#000000" stroke-width="2.50" stroke-linejoin="bevel" points="133.805 11.258 133.805 31.26"/>
  <polyline class="Stem" fill="none" stroke="#000000" stroke-width="0.65" stroke-linecap="round" stroke-linejoin="bevel" points="106.471 22.199 106.471 34.385"/>
  <polyline class="Stem" fill="none" stroke="#000000" stroke-width="0.65" stroke-linecap="round" stroke-linejoin="bevel" points="87.128 22.199 87.128 34.385"/>
  <polyline class="Stem" fill="none" stroke="#000000" stroke-width="0.65" stroke-linecap="round" stroke-linejoin="bevel" points="75.039 22.199 75.039 38.76"/>
  <polyline class="Stem" fill="none" stroke="#000000" stroke-width="0.65" stroke-linecap="round" stroke-linejoin="bevel" points="55.696 22.199 55.696 34.385"/>
  <polyline class="Stem" fill="none" stroke="#000000" stroke-width="0.65" stroke-linecap="round" stroke-linejoin="bevel" points="43.607 22.199 43.607 38.76"/>
  <path class="Note" d="M 110.54 18.506 C 111.165 18.506 111.693 18.669 112.122 18.993 C 112.526 19.346 112.728 19.788 112.728 20.322 C 112.728 21.221 112.265 22.06 111.341 22.842 C 110.404 23.623 109.401 24.014 108.333 24.014 C 107.708 24.014 107.181 23.851 106.751 23.525 C 106.348 23.174 106.146 22.73 106.146 22.197 C 106.146 21.299 106.614 20.459 107.552 19.678 C 108.463 18.896 109.46 18.506 110.54 18.506"/>
  <path class="Note" d="M 91.197 18.506 C 91.822 18.506 92.35 18.669 92.779 18.993 C 93.183 19.346 93.385 19.788 93.385 20.322 C 93.385 21.221 92.923 22.06 91.998 22.842 C 91.061 23.623 90.058 24.014 88.99 24.014 C 88.365 24.014 87.838 23.851 87.408 23.525 C 87.005 23.174 86.803 22.73 86.803 22.197 C 86.803 21.299 87.272 20.459 88.209 19.678 C 89.12 18.896 90.117 18.506 91.197 18.506"/>
  <path class="Note" d="M 79.108 18.506 C 79.733 18.506 80.26 18.669 80.69 18.993 C 81.094 19.346 81.296 19.788 81.296 20.322 C 81.296 21.221 80.833 22.06 79.909 22.842 C 78.971 23.623 77.969 24.014 76.901 24.014 C 76.276 24.014 75.749 23.851 75.319 23.525 C 74.916 23.174 74.714 22.73 74.714 22.197 C 74.714 21.299 75.182 20.459 76.12 19.678 C 77.031 18.896 78.027 18.506 79.108 18.506"/>
  <path class="Note" d="M 59.765 18.506 C 60.39 18.506 60.918 18.669 61.347 18.993 C 61.751 19.346 61.953 19.788 61.953 20.322 C 61.953 21.221 61.491 22.06 60.566 22.842 C 59.629 23.623 58.626 24.014 57.558 24.014 C 56.933 24.014 56.406 23.851 55.976 23.525 C 55.573 23.174 55.371 22.73 55.371 22.197 C 55.371 21.299 55.84 20.459 56.777 19.678 C 57.689 18.896 58.685 18.506 59.765 18.506"/>
  <path class="Note" d="M 47.676 18.506 C 48.301 18.506 48.828 18.669 49.258 18.993 C 49.662 19.346 49.864 19.788 49.864 20.322 C 49.864 21.221 49.401 22.06 48.477 22.842 C 47.539 23.623 46.537 24.014 45.469 24.014 C 44.844 24.014 44.317 23.851 43.887 23.525 C 43.483 23.174 43.281 22.73 43.281 22.197 C 43.281 21.299 43.75 20.459 44.688 19.678 C 45.599 18.896 46.595 18.506 47.676 18.506"/>
  <path class="Clef" d="M 17.95 26.26 L 16.114 26.26 C 15.97 26.26 15.899 26.195 15.899 26.064 L 15.899 16.454 C 15.899 16.325 15.97 16.26 16.114 16.26 L 17.95 16.26 C 18.08 16.26 18.145 16.325 18.145 16.454 L 18.145 26.064 C 18.145 26.195 18.08 26.26 17.95 26.26 M 13.536 26.26 L 11.68 26.26 C 11.55 26.26 11.485 26.195 11.485 26.064 L 11.485 16.454 C 11.485 16.325 11.55 16.26 11.68 16.26 L 13.536 16.26 C 13.679 16.26 13.75 16.325 13.75 16.454 L 13.75 26.064 C 13.75 26.195 13.679 26.26 13.536 26.26"/>
  <path class="TimeSig" d="M 31.023 11.513 C 31.413 11.513 31.745 11.467 32.019 11.377 C 32.292 11.285 32.468 11.24 32.546 11.24 C 32.637 11.24 32.709 11.266 32.761 11.318 C 32.8 11.357 32.826 11.403 32.839 11.454 C 32.839 11.48 32.826 11.52 32.8 11.572 L 27.116 18.173 L 30.456 18.173 L 30.456 15.556 C 30.456 15.387 30.502 15.243 30.593 15.127 C 30.749 14.995 30.879 14.918 30.984 14.892 C 31.153 14.814 31.361 14.632 31.609 14.345 C 31.817 14.111 32.064 13.701 32.351 13.115 C 32.39 13.036 32.448 12.998 32.527 12.998 C 32.683 12.998 32.774 13.089 32.8 13.271 L 32.8 18.173 L 34.226 18.173 C 34.408 18.173 34.512 18.271 34.538 18.465 C 34.538 18.661 34.434 18.758 34.226 18.758 L 32.8 18.758 L 32.8 18.916 C 32.8 19.436 32.93 19.879 33.191 20.243 C 33.49 20.607 33.842 20.791 34.245 20.791 C 34.402 20.791 34.48 20.868 34.48 21.025 C 34.48 21.181 34.402 21.258 34.245 21.258 C 33.972 21.258 33.529 21.22 32.917 21.142 C 32.357 21.051 31.921 21.005 31.609 21.005 C 31.283 21.005 30.847 21.051 30.3 21.142 C 29.714 21.22 29.278 21.258 28.991 21.258 C 28.835 21.258 28.757 21.181 28.757 21.025 C 28.757 20.868 28.835 20.791 28.991 20.791 C 29.395 20.791 29.747 20.607 30.046 20.243 C 30.32 19.879 30.456 19.436 30.456 18.916 L 30.456 18.758 L 27.116 18.758 C 26.895 18.758 26.739 18.707 26.648 18.603 C 26.543 18.525 26.491 18.421 26.491 18.291 C 26.491 18.252 26.589 18.115 26.784 17.88 C 27.006 17.62 27.24 17.301 27.487 16.923 C 27.774 16.48 28.047 16.025 28.308 15.556 C 28.594 15.021 28.822 14.41 28.991 13.72 C 29.187 13.017 29.284 12.301 29.284 11.572 C 29.284 11.364 29.375 11.258 29.558 11.258 C 29.597 11.258 29.681 11.279 29.812 11.318 C 29.851 11.331 29.932 11.351 30.056 11.377 C 30.18 11.403 30.28 11.429 30.359 11.454 C 30.593 11.493 30.814 11.513 31.023 11.513"/>
  <path class="TimeSig" d="M 31.023 21.514 C 31.413 21.514 31.745 21.467 32.019 21.377 C 32.292 21.286 32.468 21.24 32.546 21.24 C 32.637 21.24 32.709 21.267 32.761 21.319 C 32.8 21.357 32.826 21.403 32.839 21.454 C 32.839 21.48 32.826 21.52 32.8 21.572 L 27.116 28.174 L 30.456 28.174 L 30.456 25.557 C 30.456 25.388 30.502 25.243 30.593 25.127 C 30.749 24.997 30.879 24.919 30.984 24.893 C 31.153 24.814 31.361 24.632 31.609 24.346 C 31.817 24.112 32.064 23.701 32.351 23.115 C 32.39 23.036 32.448 22.998 32.527 22.998 C 32.683 22.998 32.774 23.089 32.8 23.271 L 32.8 28.174 L 34.226 28.174 C 34.408 28.174 34.512 28.271 34.538 28.467 C 34.538 28.661 34.434 28.76 34.226 28.76 L 32.8 28.76 L 32.8 28.916 C 32.8 29.437 32.93 29.88 33.191 30.243 C 33.49 30.609 33.842 30.791 34.245 30.791 C 34.402 30.791 34.48 30.868 34.48 31.026 C 34.48 31.182 34.402 31.26 34.245 31.26 C 33.972 31.26 33.529 31.221 32.917 31.143 C 32.357 31.051 31.921 31.006 31.609 31.006 C 31.283 31.006 30.847 31.051 30.3 31.143 C 29.714 31.221 29.278 31.26 28.991 31.26 C 28.835 31.26 28.757 31.182 28.757 31.026 C 28.757 30.868 28.835 30.791 28.991 30.791 C 29.395 30.791 29.747 30.609 30.046 30.243 C 30.32 29.88 30.456 29.437 30.456 28.916 L 30.456 28.76 L 27.116 28.76 C 26.895 28.76 26.739 28.708 26.648 28.604 C 26.543 28.526 26.491 28.421 26.491 28.291 C 26.491 28.252 26.589 28.115 26.784 27.881 C 27.006 27.62 27.24 27.301 27.487 26.924 C 27.774 26.48 28.047 26.026 28.308 25.557 C 28.594 25.023 28.822 24.411 28.991 23.721 C 29.187 23.018 29.284 22.301 29.284 21.572 C 29.284 21.364 29.375 21.26 29.558 21.26 C 29.597 21.26 29.681 21.28 29.812 21.319 C 29.851 21.332 29.932 21.351 30.056 21.377 C 30.18 21.403 30.28 21.429 30.359 21.454 C 30.593 21.493 30.814 21.514 31.023 21.514"/>
  <path class="Hook" d="M 79.264 24.288 C 79.564 24.288 79.883 24.776 80.221 25.753 C 80.547 26.717 80.71 27.633 80.71 28.507 C 80.71 29.249 80.527 29.985 80.163 30.714 C 79.785 31.495 79.336 32.172 78.815 32.745 L 77.213 34.542 C 76.719 35.115 76.276 35.779 75.886 36.534 C 75.521 37.263 75.339 38.006 75.339 38.76 L 74.714 38.76 L 74.714 33.76 L 75.339 33.76 C 75.69 33.539 76.211 33.188 76.901 32.706 C 77.213 32.472 77.682 32.081 78.307 31.534 C 78.815 31.064 79.199 30.584 79.46 30.089 C 79.733 29.568 79.87 29.041 79.87 28.507 C 79.87 27.27 79.512 26.039 78.796 24.814 C 78.796 24.814 78.796 24.789 78.796 24.737 C 78.796 24.62 78.835 24.523 78.913 24.444 C 79.017 24.34 79.134 24.288 79.264 24.288"/>
  <path class="Hook" d="M 47.832 24.288 C 48.132 24.288 48.451 24.776 48.789 25.753 C 49.115 26.717 49.278 27.633 49.278 28.507 C 49.278 29.249 49.095 29.985 48.731 30.714 C 48.353 31.495 47.904 32.172 47.383 32.745 L 45.781 34.542 C 45.287 35.115 44.844 35.779 44.453 36.534 C 44.089 37.263 43.906 38.006 43.906 38.76 L 43.281 38.76 L 43.281 33.76 L 43.906 33.76 C 44.258 33.539 44.779 33.188 45.469 32.706 C 45.781 32.472 46.25 32.081 46.875 31.534 C 47.383 31.064 47.767 30.584 48.028 30.089 C 48.301 29.568 48.438 29.041 48.438 28.507 C 48.438 27.27 48.08 26.039 47.364 24.814 C 47.364 24.814 47.364 24.789 47.364 24.737 C 47.364 24.62 47.403 24.523 47.481 24.444 C 47.585 24.34 47.702 24.288 47.832 24.288"/>
</svg>
